X:1
T:Frühlingsglaube
T:Franz Schubert (1797 - 1828) Arr.von Gustav Weber (1845-1887)
T:Ludwig Uhland 
T:Frühlingsglaube
T:D 686 
T:CPDL - Creative Commons Attribution Non Commercial 3.0
T:CPDL - Creative Commons Attribution Non Commercial 3.0
T:CPDL - Creative Commons Attribution Non Commercial 3.0
T:CPDL - Creative Commons Attribution Non Commercial 3.0
C:Franz Schubert
Z:Ludwig Uhland
Z:CPDL - Creative Commons Attribution Non Commercial 3.0
%%score [ ( 1 2 ) ( 3 4 ) ( 5 6 ) ( 7 8 ) ]
L:1/8
Q:1/4=44
M:2/4
K:Ab
V:1 treble nm="Sopran"
V:2 treble 
V:3 treble nm="Alt"
V:4 treble 
V:5 treble-8 nm="Tenor"
V:6 treble-8 
V:7 bass nm="Bass"
V:8 bass 
V:1
"^Ziemlich langsam"!pp! c/ | c/e/ d/c/ cB | E/A/ G/A/ !breath!B>B | c/e/(d/c/) (cB/)E/ | %4
w: 1.~Die|lin- * den _ Lüf- te|sind _ er- * wacht, sie|säu- * seln und we- * ben|
w: 2.~Die|Welt _ wird _ schö- ner|je- * dem _ Tag; man|weiß _ nicht, _ was * *|
 E/A/ G/A/ !breath!B>B |!<(! B-B/B/ c>!<)!c | df d/!breath!c/ B/A/ |!>(! A>A G/eG/!>)! | %8
w: Tag _ und _ Nacht; sie|schaf- fen an al- len|En- * den, _ an _|al- len En- * *|
w: wer- * den _ mag; das|Blü- * hen will nicht|en- * den, _ es _|will nicht en- * *|
 A2 z!p! e |!<(! B A/B/ c>c!<)! | e/d!>(!c/!>)! B2 | z!<(! e e>!<)!c | e/!>(!dc/!>)! !breath!B2 | %13
w: den. O|fri- scher * Duft, o|neu- * er Klang!|o neu- er,|neu- * er Klang.|
w: den. Es|blüht das _ ferns- te,|tiefs- * te Tal.|Es blüht das|tiefs- * te Tal.|
!<(! _cc/>!<)!c/ c/B/B | f>!>(!=d!>)! !breath!e2 |!f! cd/>B/ e!breath!c | %16
w: Nun, ar- mes Her- * ze,|sei nicht bang!|1\-2.~Nun muss sich Al- les,|
w: Nun, ar- mes Herz, * ver-|giß der Qual!||
"^Bem.: Im Chor werden die Verzierungen nicht ausgeführt" c{dcBc}d/B/!>(! ec!>)! | %17
w: Al- * les wen- den,|
w: |
 z/!<(! A/A/B/ B/d!breath!c/!<)! |!f![Q:1/4=40]"^rit." f3/2 e/4d/4 c!>(!{dcBc}d/>G/ | A3!>)! z/ |] %20
w: nun muss sich Al- * les,|Al- les * wen- * *|den!|
w: |||
V:2
 x/ | x3 B/E/ | x4 | x3 B | x4 | x4 | x4 | x4 | x4 | x4 | x4 | x4 | x4 | x4 | x4 | x4 | x4 | x4 | %18
w: ||||||||||||||||||
w: |* mit||noch|||||||||||||||
 x4 | x7/2 |] %20
w: ||
w: ||
V:3
!pp! E/ | EE ED | CE !breath!E>E | EE/-E/ (ED/)D/ | CE !breath!G>E |!<(! E-E/E/ =E>!<)!E | %6
w: ||||||
w: ||||||
 F2 !breath!AF |!>(! E>E E/GE/!>)! | !breath!E!p!"^O\nEs"E"^fri            -\nblüht ________" E2- | %9
w: |||
w: |||
"^-\n__"!<(! EE E>E!<)! | E!>(!E!>)! E2 | z!<(! E E>!<)!A | c/!>(!BA/!>)! !breath!G2 | %13
w: * scher Duft, o|neu- er Klang!|||
w: * das ferns- te,|tiefs- te Tal.|||
!<(! FF/>!<)!F/ G E/G/ | A>!>(!A!>)! !breath!G2 |!f! EE/>E/ E!breath!E | E>E!>(! EE!>)! | %17
w: ||||
w: ||||
 z/!<(! E/F/F/ G>!breath!A!<)! |!f! A>F!>(! E2!>)! | E3 z/ |] %20
w: |||
w: |||
V:4
 x/ | x3 D/D/ | x4 | x3 D | x4 | x4 | x4 | x4 | x4 | x4 | x4 | x4 | x4 | x4 | x4 | x4 | x4 | x4 | %18
 x4 | x7/2 |] %20
V:5
!pp! A/ | A/c/ B/A/ AG | A B/c/ !breath!G>G | A/c/(B/A/) GG | A B/c/ !breath!e>B | %5
w: 1.~Die|lin- * den _ Lüf- te|sind er- * wacht, sie|säu- * seln und we- ben|Tag und _ Nacht; sie|
w: 2.~Die|Welt _ wird _ schö- ner|je- dem _ Tag; man|weiß _ nicht, _ was noch|wer- den _ mag; das|
!<(! B-B/B/ B>!<)!B | A>d f/!breath!e/ d/c/ |!>(! c>c Bd!>)! | c2 z!p! c |!<(! G F/G/ A>A!<)! | %10
w: schaf- fen an al- len|En- * den, _ an _|al- len En- *|den. O|fri- scher * Duft, o|
w: Blü- * hen will nicht|en- * den, _ es _|will nicht en- *|den. Es|blüht das _ ferns- te,|
 c/B!>(!A/ !breath!G!>)!e | B!<(! A/B/ ce!<)! | e!>(!e!>)! !breath!e2 |!<(! =dd/>!<)!d/ eB | %14
w: neu- * er Klang! O|fri- scher * Duft, o|neu- er Klang!|Nun, ar- mes Her- ze,|
w: tiefs- * te Tal. Es|blüht das _ ferns- te,|tiefs- te Tal.|Nun, ar- mes Herz, ver-|
 B>!>(!B!>)! !breath!B2 |!f! cd/>B/ e!breath!c | cd/B/!>(! ec!>)! | %17
w: sei nicht bang!|1\-2.~Nun muss sich Al- les,|Al- * les wen- den,|
w: giß der Qual!|||
 z/!<(! A/A/A/ G/B!breath!A/!<)! |!f! d>A A!>(!G/d/ | c3!>)! z/ |] %20
w: nun muss sich Al- * les,|Al- les wen- * *|den.|
w: |||
V:6
 x/ | x3 G/G/ | x4 | x4 | x4 | x4 | x4 | x4 | x4 | x4 | x4 | x4 | x4 | x4 | x4 | x4 | x4 | x4 | %18
w: ||||||||||||||||||
w: |* mit|||||||||||||||||
 x4 | x7/2 |] %20
w: ||
w: ||
V:7
!pp! A,,/ | A,,A,, E,E, | A,A, !breath!E,E, | A,,A,,/-A,,/ E,E, | A,A, !breath!E,>G, | %5
w: |||||
w: |||||
!<(! G,-G,/G,/ G,>!<)!G, | F,A, !breath!D,D, |!>(! E,>E, E,2!>)! | A,,2 z z | %9
w: ||||
w: ||||
 z!p!!<(! E, E,E,!<)! | E,-E,/!>(!E,/ !breath!E,!>)!E, | G,!<(! F,/G,/ A,>!<)!A, | %12
w: O fri- scher|Duft, neu- er Klang! O|fri- scher * Duft, o|
w: Es blüht das|tiefs- * te Tal. Es|blüht das _ ferns- te,|
 G,!>(!A,!>)! !breath!E,2 |!<(! A,A,/>!<)!A,/ G,G, | =D,>!>(!F,!>)! !breath!E,2 | %15
w: |||
w: |||
!f! A,B,/>G,/ C!breath!A, | A,B,/G,/!>(! CA,!>)! | z/!<(! C,/D,/=D,/ E,/=E,!breath!F,/!<)! | %18
w: |||
w: |||
!f! D,>D,!>(! E,2!>)! | A,,3 z/ |] %20
w: ||
w: ||
V:8
 x/ | x3 E,/E,/ | x4 | x4 | x4 | x4 | x4 | x4 | x4 | x4 | x4 | x4 | x4 | x4 | x4 | x4 | x4 | x4 | %18
 x4 | x7/2 |] %20

